docs/svgs/motion-sensor.svg

<svg viewBox="0 0 24 24" height="24px" width="24px" fill="#44739e" xmlns="http://www.w3.org/2000/svg"><title>hue:motion-sensor</title><desc>Source: https://github.com/arallsopp/hass-hue-icons</desc><path d="M 12 15 C 10.34375 15 9 13.65625 9 12 C 9 10.34375 10.34375 9 12 9 C 13.65625 9 15 10.34375 15 12 C 15 13.65625 13.65625 15 12 15 M 12 4.5 C 12.414062 4.5 12.75 4.835938 12.75 5.25 C 12.75 5.664062 12.414062 6 12 6 C 11.585938 6 11.25 5.664062 11.25 5.25 C 11.25 4.835938 11.585938 4.5 12 4.5 M 18 3 L 6 3 C 4.351562 3 3 4.351562 3 6 L 3 18 C 3 19.648438 4.351562 21 6 21 L 18 21 C 19.648438 21 21 19.648438 21 18 L 21 6 C 21 4.351562 19.648438 3 18 3 "/></svg>

<svg viewBox="0 0 24 24" height="24px" width="24px" fill="#44739e" xmlns="http://www.w3.org/2000/svg"><title>hue:motion-sensor</title><desc>Source: https://github.com/arallsopp/hass-hue-icons</desc><path d="M12,15c-1.66,0-3-1.34-3-3s1.34-3,3-3s3,1.34,3,3S13.66,15,12,15 M12,4.5c0.41,0,0.75,0.34,0.75,0.75 S12.41,6,12,6s-0.75-0.34-0.75-0.75S11.59,4.5,12,4.5 M18,3H6C4.35,3,3,4.35,3,6v12c0,1.65,1.35,3,3,3h12c1.65,0,3-1.35,3-3V6 C21,4.35,19.65,3,18,3"/></svg>
